ids-wordpress/site-IdS/assets/images/logo-oficial.svg

<svg xmlns="http://www.w3.org/2000/svg" width="1066" height="444" fill="none"><path fill="#F75705" d="M0 .738h438.001V438.74H0v-438Z"/><path fill="#F3F3F5" d="M34.067 322.543v-207.44h28.427v207.44H34.067Zm61.988 0v-207.44h45.073c15.366 0 27.488 2.39 36.366 7.171 9.049 4.609 15.452 11.61 19.208 21 3.927 9.39 5.89 21.085 5.89 35.085v76.318c0 14.683-1.963 27.061-5.89 37.134-3.756 10.073-9.988 17.756-18.696 23.049-8.536 5.122-20.061 7.683-34.573 7.683H96.055Zm28.939-20.744h16.39c10.586 0 18.098-2.049 22.537-6.146 4.439-4.098 7.085-10.074 7.939-17.927 1.024-7.854 1.537-17.33 1.537-28.427v-67.354c0-10.756-.683-19.464-2.049-26.122-1.366-6.659-4.354-11.525-8.964-14.598-4.609-3.073-11.866-4.61-21.768-4.61h-15.622v165.184Zm155.028 23.049c-11.951 0-21.939-2.561-29.964-7.683-7.853-5.122-13.829-12.207-17.927-21.256-4.097-9.049-6.487-19.549-7.17-31.5l25.609-6.915c.513 7.341 1.622 14.427 3.33 21.256 1.878 6.829 4.866 12.464 8.963 16.903 4.098 4.268 9.817 6.402 17.159 6.402 7.512 0 13.146-2.049 16.902-6.146 3.927-4.269 5.891-10.33 5.891-18.183 0-9.391-2.134-16.903-6.403-22.537-4.268-5.805-9.646-11.61-16.134-17.415l-34.829-30.732c-6.83-5.975-11.866-12.463-15.11-19.463-3.244-7.171-4.866-15.964-4.866-26.378 0-15.195 4.353-26.976 13.061-35.342 8.707-8.366 20.573-12.549 35.598-12.549 8.195 0 15.366 1.11 21.512 3.33 6.317 2.048 11.524 5.292 15.622 9.731 4.268 4.439 7.598 10.074 9.988 16.903 2.561 6.658 4.268 14.512 5.122 23.561l-24.586 6.658c-.512-6.829-1.536-13.061-3.073-18.695-1.536-5.805-4.268-10.414-8.195-13.829-3.756-3.585-9.22-5.378-16.39-5.378-7.171 0-12.805 1.963-16.903 5.89-3.927 3.756-5.89 9.39-5.89 16.903 0 6.317 1.024 11.524 3.073 15.622 2.22 4.097 5.72 8.28 10.5 12.549l35.086 30.731c7.853 6.83 14.768 15.025 20.744 24.586 5.975 9.39 8.963 20.573 8.963 33.549 0 10.244-2.134 19.122-6.402 26.634-4.269 7.342-10.159 12.976-17.671 16.903-7.342 3.927-15.878 5.89-25.61 5.89Zm68.546-2.305v-30.476h27.403v30.476h-27.403Z"/><path fill="#3A3A3A" d="M399.672 322.543v-207.44h45.074c15.365 0 27.487 2.39 36.366 7.171 9.048 4.609 15.451 11.61 19.207 21 3.927 9.39 5.89 21.085 5.89 35.085v76.318c0 14.683-1.963 27.061-5.89 37.134-3.756 10.073-9.988 17.756-18.695 23.049-8.537 5.122-20.061 7.683-34.574 7.683h-47.378Zm28.939-20.744h16.391c10.585 0 18.097-2.049 22.536-6.146 4.439-4.098 7.086-10.074 7.939-17.927 1.025-7.854 1.537-17.33 1.537-28.427v-67.354c0-10.756-.683-19.464-2.049-26.122-1.366-6.659-4.353-11.525-8.963-14.598-4.61-3.073-11.866-4.61-21.769-4.61h-15.622v165.184Zm106.113 20.744v-207.44h80.415v21.512h-51.476v68.635h41.745v20.488h-41.745v76.061h51.989v20.744h-80.928Zm153.206 2.305c-11.952 0-21.94-2.561-29.964-7.683-7.854-5.122-13.829-12.207-17.927-21.256-4.098-9.049-6.488-19.549-7.171-31.5l25.61-6.915c.512 7.341 1.622 14.427 3.329 21.256 1.878 6.829 4.866 12.464 8.964 16.903 4.097 4.268 9.817 6.402 17.159 6.402 7.512 0 13.146-2.049 16.902-6.146 3.927-4.269 5.89-10.33 5.89-18.183 0-9.391-2.134-16.903-6.402-22.537-4.268-5.805-9.647-11.61-16.134-17.415l-34.83-30.732c-6.829-5.975-11.866-12.463-15.11-19.463-3.244-7.171-4.866-15.964-4.866-26.378 0-15.195 4.354-26.976 13.061-35.342 8.708-8.366 20.574-12.549 35.598-12.549 8.195 0 15.366 1.11 21.513 3.33 6.317 2.048 11.524 5.292 15.622 9.731 4.268 4.439 7.597 10.074 9.987 16.903 2.561 6.658 4.269 14.512 5.122 23.561l-24.585 6.658c-.512-6.829-1.537-13.061-3.073-18.695-1.537-5.805-4.269-10.414-8.195-13.829-3.757-3.585-9.22-5.378-16.391-5.378-7.171 0-12.805 1.963-16.902 5.89-3.927 3.756-5.891 9.39-5.891 16.903 0 6.317 1.025 11.524 3.074 15.622 2.219 4.097 5.719 8.28 10.5 12.549l35.085 30.731c7.854 6.83 14.769 15.025 20.744 24.586 5.976 9.39 8.964 20.573 8.964 33.549 0 10.244-2.134 19.122-6.403 26.634-4.268 7.342-10.158 12.976-17.671 16.903-7.341 3.927-15.878 5.89-25.609 5.89Zm73.668-2.305v-207.44h28.427v207.44h-28.427Zm111.415 2.561c-12.976 0-23.39-2.732-31.244-8.195-7.683-5.634-13.317-13.744-16.903-24.329-3.414-10.586-5.122-23.305-5.122-38.159v-69.403c0-15.195 1.537-28.086 4.61-38.671 3.244-10.756 8.878-18.951 16.903-24.586 8.195-5.634 19.549-8.451 34.061-8.451 12.976 0 23.39 2.22 31.244 6.659 8.024 4.268 13.829 10.927 17.415 19.976 3.585 8.878 5.378 20.146 5.378 33.805v7.683h-27.147v-6.403c0-9.049-.597-16.39-1.792-22.024-1.196-5.805-3.671-10.074-7.427-12.805-3.586-2.903-9.305-4.354-17.159-4.354-8.537 0-14.768 1.963-18.695 5.89-3.756 3.927-6.147 9.305-7.171 16.134-.854 6.659-1.28 14.257-1.28 22.793v76.83c0 9.902.683 18.183 2.048 24.842 1.537 6.658 4.354 11.609 8.452 14.853 4.097 3.244 9.902 4.866 17.414 4.866 7.513 0 13.318-1.793 17.415-5.378 4.098-3.585 6.915-8.878 8.451-15.878 1.537-7 2.305-15.707 2.305-26.122v-14.342h-26.378v-20.488h52.5v102.696h-18.183l-2.817-23.817c-2.731 7.683-7 14-12.805 18.951-5.805 4.951-13.829 7.427-24.073 7.427Zm87.626-2.561v-207.44h19.719l58.902 137.781V115.103h24.07v207.44h-18.43L985.224 180.92v141.623h-24.585Z"/></svg>

<svg width="1066" height="444" viewBox="0 0 1066 444" fill="none" xmlns="http://www.w3.org/2000/svg">
<path d="M0 0.738403H438.001V438.739H0V0.738403Z" fill="#F75705"/>
<path d="M34.0668 322.543V115.103H62.4938V322.543H34.0668ZM96.0548 322.543V115.103H141.128C156.494 115.103 168.616 117.493 177.494 122.274C186.543 126.883 192.946 133.884 196.702 143.274C200.629 152.664 202.592 164.359 202.592 178.359V254.677C202.592 269.36 200.629 281.738 196.702 291.811C192.946 301.884 186.714 309.567 178.006 314.86C169.47 319.982 157.945 322.543 143.433 322.543H96.0548ZM124.994 301.799H141.384C151.97 301.799 159.482 299.75 163.921 295.653C168.36 291.555 171.006 285.579 171.86 277.726C172.884 269.872 173.397 260.396 173.397 249.299V181.945C173.397 171.189 172.714 162.481 171.348 155.823C169.982 149.164 166.994 144.298 162.384 141.225C157.775 138.152 150.518 136.615 140.616 136.615H124.994V301.799ZM280.022 324.848C268.071 324.848 258.083 322.287 250.058 317.165C242.205 312.043 236.229 304.958 232.131 295.909C228.034 286.86 225.644 276.36 224.961 264.409L250.57 257.494C251.083 264.835 252.192 271.921 253.9 278.75C255.778 285.579 258.766 291.214 262.863 295.653C266.961 299.921 272.68 302.055 280.022 302.055C287.534 302.055 293.168 300.006 296.924 295.909C300.851 291.64 302.815 285.579 302.815 277.726C302.815 268.335 300.681 260.823 296.412 255.189C292.144 249.384 286.766 243.579 280.278 237.774L245.449 207.042C238.619 201.067 233.583 194.579 230.339 187.579C227.095 180.408 225.473 171.615 225.473 161.201C225.473 146.006 229.826 134.225 238.534 125.859C247.241 117.493 259.107 113.31 274.132 113.31C282.327 113.31 289.498 114.42 295.644 116.64C301.961 118.688 307.168 121.932 311.266 126.371C315.534 130.81 318.864 136.445 321.254 143.274C323.815 149.932 325.522 157.786 326.376 166.835L301.79 173.493C301.278 166.664 300.254 160.432 298.717 154.798C297.181 148.993 294.449 144.384 290.522 140.969C286.766 137.384 281.302 135.591 274.132 135.591C266.961 135.591 261.327 137.554 257.229 141.481C253.302 145.237 251.339 150.871 251.339 158.384C251.339 164.701 252.363 169.908 254.412 174.006C256.632 178.103 260.132 182.286 264.912 186.555L299.998 217.286C307.851 224.116 314.766 232.311 320.742 241.872C326.717 251.262 329.705 262.445 329.705 275.421C329.705 285.665 327.571 294.543 323.303 302.055C319.034 309.397 313.144 315.031 305.632 318.958C298.29 322.885 289.754 324.848 280.022 324.848ZM348.568 322.543V292.067H375.971V322.543H348.568Z" fill="#F3F3F5"/>
<path d="M399.672 322.543V115.103H444.746C460.111 115.103 472.233 117.493 481.112 122.274C490.16 126.883 496.563 133.884 500.319 143.274C504.246 152.664 506.209 164.359 506.209 178.359V254.677C506.209 269.36 504.246 281.738 500.319 291.811C496.563 301.884 490.331 309.567 481.624 314.86C473.087 319.982 461.563 322.543 447.05 322.543H399.672ZM428.611 301.799H445.002C455.587 301.799 463.099 299.75 467.538 295.653C471.977 291.555 474.624 285.579 475.477 277.726C476.502 269.872 477.014 260.396 477.014 249.299V181.945C477.014 171.189 476.331 162.481 474.965 155.823C473.599 149.164 470.612 144.298 466.002 141.225C461.392 138.152 454.136 136.615 444.233 136.615H428.611V301.799ZM534.724 322.543V115.103H615.139V136.615H563.663V205.25H605.408V225.738H563.663V301.799H615.652V322.543H534.724ZM687.93 324.848C675.978 324.848 665.99 322.287 657.966 317.165C650.112 312.043 644.137 304.958 640.039 295.909C635.941 286.86 633.551 276.36 632.868 264.409L658.478 257.494C658.99 264.835 660.1 271.921 661.807 278.75C663.685 285.579 666.673 291.214 670.771 295.653C674.868 299.921 680.588 302.055 687.93 302.055C695.442 302.055 701.076 300.006 704.832 295.909C708.759 291.64 710.722 285.579 710.722 277.726C710.722 268.335 708.588 260.823 704.32 255.189C700.052 249.384 694.673 243.579 688.186 237.774L653.356 207.042C646.527 201.067 641.49 194.579 638.246 187.579C635.002 180.408 633.38 171.615 633.38 161.201C633.38 146.006 637.734 134.225 646.441 125.859C655.149 117.493 667.015 113.31 682.039 113.31C690.234 113.31 697.405 114.42 703.552 116.64C709.869 118.688 715.076 121.932 719.174 126.371C723.442 130.81 726.771 136.445 729.161 143.274C731.722 149.932 733.43 157.786 734.283 166.835L709.698 173.493C709.186 166.664 708.161 160.432 706.625 154.798C705.088 148.993 702.356 144.384 698.43 140.969C694.673 137.384 689.21 135.591 682.039 135.591C674.868 135.591 669.234 137.554 665.137 141.481C661.21 145.237 659.246 150.871 659.246 158.384C659.246 164.701 660.271 169.908 662.32 174.006C664.539 178.103 668.039 182.286 672.82 186.555L707.905 217.286C715.759 224.116 722.674 232.311 728.649 241.872C734.625 251.262 737.613 262.445 737.613 275.421C737.613 285.665 735.479 294.543 731.21 302.055C726.942 309.397 721.052 315.031 713.539 318.958C706.198 322.885 697.661 324.848 687.93 324.848ZM761.598 322.543V115.103H790.025V322.543H761.598ZM873.013 325.104C860.037 325.104 849.623 322.372 841.769 316.909C834.086 311.275 828.452 303.165 824.866 292.58C821.452 281.994 819.744 269.275 819.744 254.421V185.018C819.744 169.823 821.281 156.932 824.354 146.347C827.598 135.591 833.232 127.396 841.257 121.761C849.452 116.127 860.806 113.31 875.318 113.31C888.294 113.31 898.708 115.53 906.562 119.969C914.586 124.237 920.391 130.896 923.977 139.945C927.562 148.823 929.355 160.091 929.355 173.75V181.433H902.208V175.03C902.208 165.981 901.611 158.64 900.416 153.006C899.22 147.201 896.745 142.932 892.989 140.201C889.403 137.298 883.684 135.847 875.83 135.847C867.293 135.847 861.062 137.81 857.135 141.737C853.379 145.664 850.988 151.042 849.964 157.871C849.11 164.53 848.684 172.128 848.684 180.664V257.494C848.684 267.396 849.367 275.677 850.732 282.336C852.269 288.994 855.086 293.945 859.184 297.189C863.281 300.433 869.086 302.055 876.598 302.055C884.111 302.055 889.916 300.262 894.013 296.677C898.111 293.092 900.928 287.799 902.464 280.799C904.001 273.799 904.769 265.092 904.769 254.677V240.335H878.391V219.847H930.891V322.543H912.708L909.891 298.726C907.16 306.409 902.891 312.726 897.086 317.677C891.281 322.628 883.257 325.104 873.013 325.104ZM960.639 322.543V115.103H980.358L1039.26 252.884V115.103H1063.33V322.543H1044.9L985.224 180.92V322.543H960.639Z" fill="#3A3A3A"/>
</svg>
